X:1
T:Ante oculos errant
T:Daniel Friderici
T:Source : Bicinia sacra---Rostock---J.Richelius---1642. Editor : André Vierendeels (14/07/17).
T:Notes : Original clefs : G2, G2 Editorial accidentals above the staff
T:Ante oculos errant
T:©
T:©
T:©
C:Daniel Friderici
Z:©
%%score [ 1 2 ]
L:1/8
Q:1/4=120
M:2/2
K:F
V:1 treble nm="Soprano 1" snm="S 1"
V:2 treble nm="Soprano 2" snm="S 2"
V:1
 F3 G A2 F2 | c4 c3 f | e2 g2 f3 e/d/ | c4 dcde | f4 c4 | z2 f4 ed | cBAG FGAF | ABcd edcd/e/ | %8
w: An- te o- cu-|los, an- te|o- cu- los _ _|_ er- * * *|* rant,|er- * *|||
 f4 c4 | cBAG FGAF | ABcd edcd/e/ | f8 | c4 d4 | e2 f2 f2 c2 | d6 e2 | f8 | e4 g4 | d4 c4 | f6 e2 | %19
w: * rant,|er- * * * * * * *|||rant, er-|rant, er- rant ex-|tre- *||mi, si-|gna di-|e- *|
 d8 | c8 :: F6 G2 | A2 G2 A2 F2 | G8 | G4 A4 | B8 | A8 | z4 F4 | G2 A2 B4 | G6 G2 | A2 B2 c4 | %31
w: |i:|Mun- *|||dus se-|cu-|rus,|non|ta- men i-|sta, non|ta- men i-|
 A6 A2 | B2 c2 d4 | G4 z4 | g2 fe f2 ed | e2 dc d2 cB | cF f3 e/d/ e2 | f8 :| %38
w: sta, nin|ta- men i-|sta,|vi- * * * * *|||det.|
V:2
 z8 | F3 G A2 F2 | c4 d3 f | e2 g2 f3 c | d4 e4 | f4 z4 | z4 f4- | f2 ed cBAG | FGAF ABcd | %9
w: |An- te o- cu-|los, an- te|o- cu- los _|_ er-|rant,|er-|||
 edcd/e/ f4 | c4 cBAG | FGAF ABcd | edcd/e/ f4 | c2 d2 d2 e2 | f6 e2 | d8 | c2 d2 e2 c2 | f4 e4 | %18
w: |rant, er- * * *|||rant, er- rant ex-|tre- *||mi _ _ _|_ si-|
 d4 c2 c2- | c2 =BA B4 | c8 :: c6 =B2 | c2 d2 c2 A2 | B8 | B4 c4 | d8 | c4 c4 | d2 e2 f4 | d6 d2 | %29
w: gna di- e-||i:|Mun- *|||dus se-|cu-|rus non|ta- men i-|sta, non|
 e2 f2 g4 | e6 e2 | f2 g2 a4 | d4 f2 ef | g2 fe f2 ed | e2 dc d2 cB | c2 BA B2 AG | A3 G/F/ G4 | %37
w: ta- men i-|sta, non|ta- men i-|sta vi- * *|||||
 F8 :| %38
w: det.|

